X:1
T:Title
%%score { ( 1 3 ) | ( 2 4 ) }
L:1/8
M:4/4
K:C
V:1 treble nm="Grand Piano"
V:3 treble 
V:2 bass 
V:4 bass 
V:1
 z4 z2[Q:1/4=100] [CE][DF] | [EG]2 [CE]2 [Ec]2 [EA]2 | [EA]2 [EG]4 [EG][EA] | %3
 [B,EG]2 [B,D]2 [G,DG]2 [G,DF]2 |[M:3/4] [G,CE]6 |[M:1/4] [G,CE][G,DF] | %6
[M:4/4] [CEG]2 [G,CE]2 [Ec]2 [EB]2 | [GB]2 A4 AA | G2 G2 A2 B2 |[M:3/4] [Ec]6 |[M:1/4] [EG][Ec] | %11
[M:4/4] cBBB BBFA | [EA][EG][EG][EG] [EG][EG][EG][Ec] | BBBd A2 B2 |[M:3/4] c4 z2 | %15
[M:1/4] [EG][Ec] |[M:4/4] cBBB BBFA | [EA][EG][EG][EG] [EG][EG][EG][Ec] | BBBd A2 B2 | %19
[M:3/4] [Ec]6 |] %20
V:2
 z4 z2 [C,G,][C,G,] | [C,C]2 [C,G,]2 [C,G,]2 [C,C]2 | [C,C]2 [C,C]4 [C,C][C,C] | %3
 G,2 G,2 B,,2 B,,2 |[M:3/4] C,6 |[M:1/4] C,C, |[M:4/4] C,2 C,2 [C,G,]2 [C,C]2 | %7
 [F,C]2[K:treble] [F,CF]4 [F,CF][F,CF] | [G,CE]2 [G,CE]2 [G,B,F]2 [G,DF]2 |[M:3/4][K:bass] [C,C]6 | %10
[M:1/4] [C,C][C,C] |[M:4/4][K:treble] [G,DF][G,DF][G,DF][G,DF] [G,DF][G,DF][G,B,D][G,B,F] | %12
 [C,C][C,C][C,C][C,C] [C,C][C,C][C,C][C,C] | [G,DF][G,DF][G,DF][G,B,F] [G,DF]2 [G,DF]2 | %14
[M:3/4][K:bass] z2 z2 G2 |[M:1/4] [C,C][C,C] | %16
[M:4/4][K:treble] [G,DF][G,DF][G,DF][G,DF] [G,DF][G,DF][G,B,D][G,B,F] | %17
 [C,C][C,C][C,C][C,C] [C,C][C,C][C,C][C,C] | [G,DF][G,DF][G,DF][G,B,F] [G,DF]2 [G,DF]2 | %19
[M:3/4][K:bass] [C,C]6 |] %20
V:3
 x8 | x8 | x8 | x8 |[M:3/4] x6 |[M:1/4] x2 |[M:4/4] x8 | x8 | x8 |[M:3/4] x6 |[M:1/4] x2 | %11
[M:4/4] x8 | x8 | x8 |[M:3/4] [CE]6 |[M:1/4] x2 |[M:4/4] x8 | x8 | x8 |[M:3/4] x6 |] %20
V:4
 x8 | x8 | x8 | x8 |[M:3/4] x6 |[M:1/4] x2 |[M:4/4] x8 | x2[K:treble] x6 | x8 |[M:3/4][K:bass] x6 | %10
[M:1/4] x2 |[M:4/4][K:treble] x8 | x8 | x8 |[M:3/4][K:bass] C,6 |[M:1/4] x2 |[M:4/4][K:treble] x8 | %17
 x8 | x8 |[M:3/4][K:bass] x6 |] %20

